X:1
T:Standin In The Need of Prayer
T:Good old chariot
T:Copyright 1881 by The Riverside Press
T:Rodeheaver's Plantation Melodies
T:Rodeheaver's Plantation Melodies
Z:Rodeheaver's Plantation Melodies
%%score [ 1 2 3 4 ]
L:1/8
M:4/4
K:F
V:1 treble nm="Soprano" snm="S."
V:2 treble nm="Alto" snm="A."
V:3 bass nm="Tenor" snm="T."
V:4 bass nm="Bass" snm="B."
V:1
"^Chorus" A A2!pp! c F>F F2 | G G2 A F>F F2 | A A2 c F>F F2 |1 G>G cA/>G/ F2 FA :|2 %4
 G>G cA/>G/ F4!fine! ||!f! A<A Ac F/-F/F F2 | G<G GA F/-F/F F2 | A<A Ac F/-F/F F2 | %8
 G>G cA/>G/ F2 FA!D.C.! |] %9
V:2
 F F2!pp! F F>F F2 | E E2 E F>F F2 | F F2 F F>F F2 |1 E>E EF/>E/ F2 F2 :|2 E>E EF/>E/ F4 || %5
w: Swing low, sweet cha- ri- ot.|Swing low, sweet cha- ri- ot,|Swing low, sweet cha- ri- ot.|Don't you leave me be- hind. Oh|Don't you leave me be- hind.|
w: |||||
!f! F<F FF F/-F/F F2 | E<E EE F/-F/F F2 | F<F FF F/-F/F F2 | E>E EF/>E/ F2 F2 |] %9
w: Good old cha- riot, swing- * so low,|Good old cha- riot swing- * so low.|Good old cha- riot swing- * so low.|Don't you leave me be- hind Oh,|
w: Good old cha- riot, take us all home,|Good old cha- riot take us all home.|Good old cha- riot take us all home.||
V:3
 C C2!pp! A, A,>A, A,2 | C C2 C A,>A, A,2 | C C2 A, A,>A, A,2 |1 C>C CC/>B,/ A,2 A,C :|2 %4
 C>C CC/>B,/ A,4 ||!f! C<C CA, A,/-A,/A, A,2 | C<C CC A,/-A,/A, A,2 | C<C CA, A,/-A,/A, A,2 | %8
 C>C CC/>B,/ A,2 A,2 |] %9
V:4
 F, F,2!pp! F, F,>F, F,2 | C, C,2 C, F,>F, F,2 | F, F,2 F, F,>F, F,2 |1 C,>C, C,C,/>C,/ C,2 F,2 :|2 %4
 C,>C, C,C,/>C,/ F,4 ||!f! F,<F, F,F, F,/-F,/F, F,2 | C,<C, C,C, F,/-F,/F, F,2 | %7
 F,<F, F,F, F,/-F,/F, F,2 | C,>C, C,C,/>C,/ F,2 F,2 |] %9

